X: 37
T: RUNAWAY
B: "Old English Country Dances", Frank Kidson ed., William Reeves pub., London 1890
Z: 2010-9-26 John Chambers <jc:trillian.mit.edu>
M: 6/8
L: 1/8
K: E
B | e2e (eg).e | B2B (Bd).B | e2e (eg).e |
b3- b2B | e2e (eg)ke | B2B Bcd | e2e f>ef | e3- e2 :|
|: f | g>fe g>fe | a2f- f2f | g>fe g>fe | b2B- B2f |
gfe gfe | agf b2a | gfe B2d | e3- e2 :|


%%sep 1 1 500

%%sep 1 1 500

